icons/op-headline3-24.svg

<svg width="24" height="24" viewBox="0 0 24 24" fill="none" xmlns="http://www.w3.org/2000/svg">
<path d="M4 16.8718V7.12821H5.28125V11.4872H10.4062V7.12821H11.7188V16.8718H10.4062V12.4487H5.28125V16.8718H4ZM13.625 14.4359L14.125 14.2115C14.2188 14.1795 14.3125 14.1474 14.4062 14.1474C14.4688 14.1474 14.5625 14.1795 14.625 14.2115C14.6875 14.2436 14.75 14.3077 14.7812 14.4038C14.7812 14.4038 14.8125 14.4359 14.8125 14.4679C14.8125 14.4679 14.8438 14.5 14.8438 14.5321L15.0625 14.9808C15.1562 15.141 15.2812 15.2692 15.4062 15.4295C15.5625 15.5897 15.75 15.6859 15.9688 15.7821C16.2188 15.9103 16.4688 15.9423 16.8125 15.9423C17.1562 15.9423 17.4375 15.8782 17.6875 15.7821C17.9375 15.6859 18.1562 15.5256 18.3125 15.3654C18.4688 15.1731 18.5938 14.9808 18.6875 14.7564C18.7812 14.5321 18.8125 14.3077 18.8125 14.1154C18.8125 13.859 18.7812 13.6026 18.7188 13.3782C18.6562 13.1859 18.5312 12.9936 18.3438 12.8333C18.1562 12.6731 17.9375 12.5449 17.625 12.4487C17.3125 12.3526 16.9062 12.3205 16.4062 12.3205V11.4551C16.8125 11.4231 17.1562 11.391 17.4375 11.2949C17.7188 11.2308 17.9375 11.1026 18.125 10.9423C18.3125 10.7821 18.4375 10.6218 18.5 10.3974C18.5938 10.2051 18.625 9.98077 18.625 9.72436C18.625 9.4359 18.5938 9.17949 18.5 8.98718C18.4062 8.76282 18.3125 8.60256 18.1562 8.47436C18 8.3141 17.8125 8.21795 17.625 8.15385C17.4062 8.08974 17.1875 8.05769 16.9375 8.05769C16.7188 8.05769 16.5 8.08974 16.2812 8.15385C16.0625 8.25 15.9062 8.34615 15.75 8.47436C15.5938 8.60256 15.4375 8.76282 15.3438 8.92308C15.25 9.11538 15.1562 9.30769 15.0938 9.5C15.0625 9.62821 15.0312 9.72436 14.9375 9.78846C14.875 9.85256 14.7812 9.88462 14.6875 9.88462H14.5938C14.5938 9.88462 14.5625 9.88462 14.5312 9.85256L13.9062 9.75641C13.9688 9.30769 14.0938 8.92308 14.25 8.57051C14.4375 8.25 14.6562 7.96154 14.9375 7.70513C15.2188 7.48077 15.5312 7.32051 15.875 7.19231C16.2188 7.0641 16.5938 7 17 7C17.4062 7 17.7812 7.0641 18.125 7.19231C18.4688 7.28846 18.7812 7.48077 19.0312 7.70513C19.2812 7.89744 19.4688 8.1859 19.5938 8.47436C19.75 8.79487 19.8125 9.14744 19.8125 9.5C19.8125 9.82051 19.7812 10.109 19.6875 10.3333C19.625 10.5897 19.5 10.7821 19.375 10.9744C19.2188 11.1667 19.0625 11.3269 18.8438 11.4551C18.6562 11.5833 18.4062 11.6795 18.1562 11.7436C18.7812 11.9359 19.25 12.1923 19.5312 12.609C19.8438 12.9936 20 13.4744 20 14.0833C20 14.5321 19.9062 14.9167 19.75 15.3013C19.5938 15.6538 19.3438 15.9423 19.0625 16.1987C18.7812 16.4551 18.4375 16.6474 18.0625 16.7756C17.6875 16.9359 17.2812 17 16.8438 17C16.3125 17 15.9062 16.9359 15.5312 16.8077C15.1875 16.6795 14.875 16.4872 14.625 16.2628C14.375 16.0385 14.1875 15.75 14.0312 15.4615C13.875 15.141 13.7188 14.7885 13.625 14.4359Z" fill="black"/>
</svg>

<svg xmlns="http://www.w3.org/2000/svg" width="24" height="24" viewBox="0 0 24 24"><path d="M4 16.872V7.128h1.281v4.359h5.125V7.128h1.313v9.744h-1.313v-4.423H5.281v4.423H4Zm9.625-2.436.5-.225c.094-.031.187-.064.281-.064.063 0 .156.033.219.064a.328.328 0 0 1 .156.193s.031.032.031.064c0 0 .032.032.032.064l.218.449c.094.16.219.288.344.449.156.16.344.256.563.352.25.128.5.16.843.16.344 0 .626-.064.876-.16s.468-.256.624-.417a2.42 2.42 0 0 0 .376-.609c.093-.224.124-.448.124-.641 0-.256-.031-.512-.093-.737a1.238 1.238 0 0 0-.375-.545 1.932 1.932 0 0 0-.719-.384c-.313-.096-.719-.129-1.219-.129v-.865c.406-.032.75-.064 1.032-.16.281-.064.5-.192.687-.353.187-.16.313-.32.375-.545.094-.192.125-.416.125-.673 0-.288-.031-.545-.125-.737-.094-.224-.188-.384-.344-.513a1.322 1.322 0 0 0-.531-.32 2.381 2.381 0 0 0-1.344 0 2.145 2.145 0 0 0-.531.32 1.84 1.84 0 0 0-.406.449 4.494 4.494 0 0 0-.25.577c-.032.128-.063.224-.156.288a.349.349 0 0 1-.25.097h-.094s-.032 0-.063-.032l-.625-.097c.063-.448.188-.833.344-1.185.188-.321.406-.609.688-.866a3.37 3.37 0 0 1 .937-.513A3.202 3.202 0 0 1 17 7c.406 0 .781.064 1.125.192.344.096.656.289.906.513.25.192.438.481.563.769.156.321.218.673.218 1.026 0 .321-.031.609-.124.833-.063.257-.188.449-.313.641a1.922 1.922 0 0 1-.531.481 2.25 2.25 0 0 1-.688.289c.625.192 1.094.448 1.375.865.313.385.469.865.469 1.474 0 .449-.094.834-.25 1.218-.156.353-.406.641-.688.898a2.85 2.85 0 0 1-1 .577c-.374.16-.781.224-1.218.224-.532 0-.938-.064-1.313-.192a2.885 2.885 0 0 1-.906-.545c-.25-.225-.437-.513-.594-.802a5.818 5.818 0 0 1-.406-1.025Z"/></svg>
